X: 423
T: Weel may ye a' be
O: Very old
B: John Pringle "Collection of Reels Strathspeys & Jigs", 1801 p.42#3
Z: 2011 John Chambers <jc:trillian.mit.edu>
Q: "Slow"
R: air
M: C
L: 1/8
K: Bb
V: 1
   DE | F2FD  F2BA   | G2{A}GF  ~G>ABc | d2{d}cB B>cd>c  | B<GG>F F2 :|
|: Bc | d2~dc d>ef>d | c2{d}c=B ~cde>g | f<d~c>B B>cHd>c | B<GG>F F2 :|
V: 2 clef=bass middle=d
   z2 | Bbfd  Bbaf  | eEGB E2z2 | Bbaf dfba  | gbef [d2B2] :|
|: z2 | Bdfb  d'bfd | FAcf afcA | Bbaf dfHba | fbef [d2B2] :|
